icons/svg/additional/bus_yes.svg

<?xml version="1.0" encoding="UTF-8" standalone="no"?>
<!-- Created with Inkscape (http://www.inkscape.org/) -->

<svg
   xmlns:dc="http://purl.org/dc/elements/1.1/"
   xmlns:cc="http://creativecommons.org/ns#"
   xmlns:rdf="http://www.w3.org/1999/02/22-rdf-syntax-ns#"
   xmlns:svg="http://www.w3.org/2000/svg"
   xmlns="http://www.w3.org/2000/svg"
   xmlns:sodipodi="http://sodipodi.sourceforge.net/DTD/sodipodi-0.dtd"
   xmlns:inkscape="http://www.inkscape.org/namespaces/inkscape"
   version="1.0"
   width="580"
   height="580"
   id="svg2"
   sodipodi:version="0.32"
   inkscape:version="0.92.3 (2405546, 2018-03-11)"
   sodipodi:docname="bus_yes.svg"
   inkscape:output_extension="org.inkscape.output.svg.inkscape">
  <metadata
     id="metadata2975">
    <rdf:RDF>
      <cc:Work
         rdf:about="">
        <dc:format>image/svg+xml</dc:format>
        <dc:type
           rdf:resource="http://purl.org/dc/dcmitype/StillImage" />
        <cc:license
           rdf:resource="http://web.resource.org/cc/PublicDomain" />
        <dc:language>en</dc:language>
        <dc:title />
      </cc:Work>
    </rdf:RDF>
  </metadata>
  <sodipodi:namedview
     inkscape:window-height="1006"
     inkscape:window-width="1920"
     inkscape:pageshadow="2"
     inkscape:pageopacity="0.0"
     guidetolerance="10.0"
     gridtolerance="10.0"
     objecttolerance="10.0"
     borderopacity="1.0"
     bordercolor="#666666"
     pagecolor="#ffffff"
     id="base"
     inkscape:zoom="0.65172416"
     inkscape:cx="68.02605"
     inkscape:cy="331.77333"
     inkscape:window-x="1920"
     inkscape:window-y="0"
     inkscape:current-layer="svg2"
     showgrid="false"
     inkscape:window-maximized="1" />
  <defs
     id="defs4">
    <inkscape:perspective
       sodipodi:type="inkscape:persp3d"
       inkscape:vp_x="0 : 290 : 1"
       inkscape:vp_y="0 : 1000 : 0"
       inkscape:vp_z="580 : 290 : 1"
       inkscape:persp3d-origin="290 : 193.33333 : 1"
       id="perspective2441" />
  </defs>
  <g
     id="g1327">
    <path
       d="M 66.275,1.768 C 24.94,1.768 1.704,23.139 1.704,66.804 L 1.704,516.927 C 1.704,557.771 22.599,579.156 63.896,579.156 L 515.92,579.156 C 557.227,579.156 578.149,558.841 578.149,516.927 L 578.149,66.804 C 578.149,24.203 557.227,1.768 514.628,1.768 C 514.624,1.768 66.133,1.625 66.275,1.768 z "
       style="fill:#111;stroke:#eee;stroke-width:3.40799999"
       id="path1329" />
  </g>
  <g
     id="g4372"
     transform="translate(-130.0802,122.26983)" />
  <path
     style="fill:#ffffff;fill-opacity:1;fill-rule:evenodd;stroke:none;stroke-width:1px;stroke-linecap:butt;stroke-linejoin:miter;stroke-opacity:1"
     d="m 516.75072,185.32583 -466.860371,0.29886 c -1.503023,-0.0489 -1.691833,1.21736 -2.043439,2.31988 l 0.356761,16.40915 c 2.256333,2.42743 7.712431,2.05472 6.761652,7.28838 l -27.296904,78.78821 -0.749012,59.82008 c 1.869405,3.2692 3.95232,6.11197 7.00821,7.00821 h 64.47292 c 0,-60.411 89.702103,-60.39448 89.702103,0 H 374.7971 c 0,-60.27839 91.94541,-60.61609 91.94541,0 l 69.51988,0.56035 c 5.72122,-2.13289 11.4824,-3.15828 16.8182,-15.69749 v -66.71622 c -10.95368,-30.76011 -15.15093,-85.86431 -36.32987,-90.07941 z m -200.96305,21.21889 c 2.26965,0.74807 4.44701,1.98147 6.02572,6.31337 l 19.31928,54.90947 c -0.42748,4.00646 -3.23068,5.82201 -5.95101,7.76283 l -68.19556,0.13635 c -3.20499,-0.93589 -4.34285,-3.18814 -5.50085,-5.428 l -19.67044,-54.92255 c -0.10537,-3.94585 1.08534,-7.04365 4.47353,-8.70049 z m 95.26086,0 c 2.26965,0.74807 4.44513,1.98147 6.02385,6.31337 l 19.32114,54.90947 c -0.42748,4.00646 -3.23253,5.82201 -5.95287,7.76283 l -68.19556,0.13635 c -3.205,-0.93589 -4.34285,-3.18814 -5.50085,-5.428 l -19.67043,-54.92255 c -0.10537,-3.94584 1.08533,-7.04366 4.47352,-8.70049 z m -245.10618,0.0298 52.52982,0.071 c 2.26966,0.74809 4.44698,1.98147 6.02572,6.31338 l 19.31927,54.90947 c -0.42748,4.00645 -3.23066,5.82201 -5.95099,7.76282 l -70.81992,0.20921 c -3.20499,-0.93589 -5.21702,-3.0462 -6.375,-5.28604 l 0.0112,-59.07854 c 1.11928,-3.22941 1.8717,-3.24444 5.25989,-4.90127 z m 343.06795,0.0729 c 2.26964,0.74808 4.44513,1.98334 6.02385,6.31523 l 19.32115,54.90762 c -0.42747,4.00645 -3.23254,5.82199 -5.95287,7.76282 l -68.19557,0.13823 c -3.20498,-0.9359 -4.34098,-3.19003 -5.49898,-5.42988 l -19.67043,-54.92253 c -0.10538,-3.94584 1.08346,-7.04179 4.47165,-8.69862 z m -427.011441,0.0953 57.253641,0.17184 c 3.3882,1.65682 4.57703,2.42356 4.47166,6.3694 l -0.12328,57.15091 c -1.15798,2.23985 -2.29585,4.49397 -5.50084,5.42987 l -80.194705,-0.33996 c -2.720328,-1.94081 -5.525388,-3.75449 -5.952869,-7.76095 l 24.022545,-54.70775 c 1.578722,-4.3319 3.754203,-5.56529 6.023848,-6.31336 z"
     id="path1966"
     inkscape:connector-curvature="0" />
  <path
     id="path3745"
     style="opacity:1;fill:#ffffff;fill-opacity:1;fill-rule:nonzero;stroke:none;stroke-width:2.16250014;stroke-linecap:round;stroke-linejoin:round;stroke-miterlimit:4;stroke-dasharray:8.64999998, 2.16250000000000009;stroke-dashoffset:0;stroke-opacity:1"
     d="m 172.89105,357.67975 a 29.306578,29.306578 0 1 1 -58.61315,0 29.306578,29.306578 0 1 1 58.61315,0 z"
     inkscape:connector-curvature="0" />
  <path
     id="path3745-3"
     style="opacity:1;fill:#ffffff;fill-opacity:1;fill-rule:nonzero;stroke:none;stroke-width:2.16250014;stroke-linecap:round;stroke-linejoin:round;stroke-miterlimit:4;stroke-dasharray:8.64999998, 2.16250000000000009;stroke-dashoffset:0;stroke-opacity:1"
     d="m 451.69828,357.67975 a 29.306578,29.306578 0 1 1 -58.61315,0 29.306578,29.306578 0 1 1 58.61315,0 z"
     inkscape:connector-curvature="0" />
</svg>

<svg width="580" height="580" viewBox="0 0 580 580" fill="none" xmlns="http://www.w3.org/2000/svg">
<path fill-rule="evenodd" clip-rule="evenodd" d="M516.751 185.326L49.8904 185.625C48.3874 185.576 48.1985 186.842 47.8469 187.945L48.2037 204.354C50.46 206.781 55.9161 206.409 54.9654 211.642L27.6684 290.43L26.9194 350.25C28.7888 353.52 30.8718 356.362 33.9276 357.259H98.4006C98.4006 296.848 188.103 296.864 188.103 357.259H374.797C374.797 296.98 466.743 296.643 466.743 357.259L536.262 357.819C541.984 355.686 547.745 354.661 553.081 342.122V275.405C542.127 244.645 537.93 189.541 516.751 185.326V185.326ZM315.788 206.545C318.057 207.293 320.235 208.526 321.813 212.858L341.133 267.768C340.705 271.774 337.902 273.59 335.182 275.53L266.986 275.667C263.781 274.731 262.643 272.479 261.485 270.239L241.815 215.316C241.709 211.37 242.9 208.273 246.288 206.616L315.788 206.545ZM411.049 206.545C413.318 207.293 415.494 208.526 417.072 212.858L436.394 267.768C435.966 271.774 433.161 273.59 430.441 275.53L362.245 275.667C359.04 274.731 357.902 272.479 356.744 270.239L337.074 215.316C336.968 211.37 338.159 208.273 341.547 206.616L411.049 206.545ZM165.942 206.575L218.472 206.646C220.742 207.394 222.919 208.627 224.498 212.959L243.817 267.868C243.39 271.875 240.587 273.69 237.866 275.631L167.046 275.84C163.841 274.905 161.829 272.794 160.671 270.554L160.682 211.476C161.802 208.246 162.554 208.231 165.942 206.575L165.942 206.575ZM509.01 206.648C511.28 207.396 513.455 208.631 515.034 212.963L534.355 267.87C533.928 271.877 531.123 273.692 528.402 275.633L460.207 275.771C457.002 274.836 455.866 272.581 454.708 270.342L435.037 215.419C434.932 211.473 436.121 208.377 439.509 206.72L509.01 206.648ZM81.9989 206.743L139.253 206.915C142.641 208.571 143.83 209.338 143.724 213.284L143.601 270.435C142.443 272.675 141.305 274.929 138.1 275.865L57.9054 275.525C55.185 273.584 52.38 271.77 51.9525 267.764L75.975 213.056C77.5538 208.724 79.7292 207.491 81.9989 206.743Z" fill="white"/>
<path d="M172.891 357.68C172.893 361.529 172.136 365.342 170.664 368.899C169.192 372.456 167.034 375.688 164.312 378.411C161.59 381.134 158.359 383.294 154.803 384.767C151.246 386.241 147.434 387 143.584 387C139.735 387 135.923 386.241 132.366 384.767C128.81 383.294 125.578 381.134 122.857 378.411C120.135 375.688 117.977 372.456 116.505 368.899C115.033 365.342 114.276 361.529 114.278 357.68C114.276 353.83 115.033 350.018 116.505 346.46C117.977 342.903 120.135 339.671 122.857 336.948C125.578 334.225 128.81 332.066 132.366 330.592C135.923 329.118 139.735 328.36 143.584 328.36C147.434 328.36 151.246 329.118 154.803 330.592C158.359 332.066 161.59 334.225 164.312 336.948C167.034 339.671 169.192 342.903 170.664 346.46C172.136 350.018 172.893 353.83 172.891 357.68V357.68Z" fill="white"/>
<path d="M451.698 357.68C451.7 361.529 450.943 365.342 449.471 368.899C447.999 372.456 445.841 375.688 443.119 378.411C440.398 381.134 437.166 383.294 433.61 384.767C430.053 386.241 426.241 387 422.392 387C418.542 387 414.73 386.241 411.173 384.767C407.617 383.294 404.385 381.134 401.664 378.411C398.942 375.688 396.784 372.456 395.312 368.899C393.84 365.342 393.083 361.529 393.085 357.68C393.083 353.83 393.84 350.018 395.312 346.46C396.784 342.903 398.942 339.671 401.664 336.948C404.385 334.225 407.617 332.066 411.173 330.592C414.73 329.118 418.542 328.36 422.392 328.36C426.241 328.36 430.053 329.118 433.61 330.592C437.166 332.066 440.398 334.225 443.119 336.948C445.841 339.671 447.999 342.903 449.471 346.46C450.943 350.018 451.7 353.83 451.698 357.68V357.68Z" fill="white"/>
</svg>
